icons/pray.svg

<svg width="24" height="24" viewBox="0 0 24 24" fill="none" xmlns="http://www.w3.org/2000/svg">
<path fill-rule="evenodd" clip-rule="evenodd" d="M10 5C10 3.89543 10.8954 3 12 3C13.1046 3 14 3.89543 14 5C14 6.10457 13.1046 7 12 7C10.8954 7 10 6.10457 10 5ZM10.5528 8.10557C10.8916 7.93618 11.297 7.97274 11.6 8.2L14.9062 10.6796L16.2929 9.29289C16.6834 8.90237 17.3166 8.90237 17.7071 9.29289C18.0976 9.68342 18.0976 10.3166 17.7071 10.7071L15.7071 12.7071C15.3552 13.059 14.7981 13.0986 14.4 12.8L12 11V15.5858L15.7071 19.2929C15.9931 19.5789 16.0787 20.009 15.9239 20.3827C15.7691 20.7564 15.4045 21 15 21H7C6.44772 21 6 20.5523 6 20C6 19.4477 6.44772 19 7 19H12.5858L10.2929 16.7071C10.1054 16.5196 10 16.2652 10 16V9C10 8.62123 10.214 8.27496 10.5528 8.10557Z" fill="black"/>
</svg>

<svg
  width="24"
  height="24"
  viewBox="0 0 24 24"
  xmlns="http://www.w3.org/2000/svg"
>
  <path
    fill-rule="evenodd"
    clip-rule="evenodd"
    d="M10 5a2 2 0 1 1 4 0 2 2 0 0 1-4 0zm.553 3.106A1 1 0 0 1 11.6 8.2l3.306 2.48 1.387-1.387a1 1 0 1 1 1.414 1.414l-2 2a1 1 0 0 1-1.307.093L12 11v4.586l3.707 3.707A1 1 0 0 1 15 21H7a1 1 0 1 1 0-2h5.586l-2.293-2.293A1 1 0 0 1 10 16V9a1 1 0 0 1 .553-.894z"
  />
</svg>
